icons/Danger Octagon Streamline Mynaui Line.svg

<svg width="24" height="24" viewBox="0 0 24 24" fill="none" xmlns="http://www.w3.org/2000/svg">
<g id="Danger Octagon Streamline Mynaui Line">
<path id="Vector" d="M12 7.90031V13.0566M12 16.0997V15.6309M8.06719 4.00219C8.4 3.67031 8.67281 3.5625 9.12844 3.5625H14.8716C15.3272 3.5625 15.6009 3.67031 15.9328 4.00219L19.9978 8.06719C20.3297 8.39906 20.4375 8.67281 20.4375 9.12844V14.8716C20.4375 15.3403 20.3203 15.6103 19.9978 15.9328L15.9328 19.9978C15.6009 20.3297 15.3272 20.4375 14.8716 20.4375H9.12844C8.65969 20.4375 8.38969 20.3203 8.06719 19.9978L4.00313 15.9328C3.67031 15.6 3.5625 15.3272 3.5625 14.8716V9.12844C3.5625 8.65969 3.67969 8.38969 4.00219 8.06719L8.06719 4.00219Z" stroke="#C23A3E" stroke-linecap="round" stroke-linejoin="round"/>
</g>
</svg>

<svg xmlns="http://www.w3.org/2000/svg" width="24" height="24" fill="none"><path stroke="#C23A3E" stroke-linecap="round" stroke-linejoin="round" d="M12 7.9v5.157m0 3.043v-.47M8.067 4.003c.333-.332.606-.44 1.061-.44h5.744c.455 0 .729.108 1.06.44l4.066 4.065c.332.332.44.606.44 1.061v5.744c0 .468-.118.738-.44 1.06l-4.065 4.066c-.332.332-.606.44-1.061.44H9.128c-.468 0-.738-.118-1.06-.44l-4.065-4.065c-.333-.333-.44-.606-.44-1.061V9.128c0-.468.117-.738.44-1.06z"/></svg>
